svg/mfixx/iphone.svg

<svg version="1.1" xmlns="http://www.w3.org/2000/svg" xmlns:xlink="http://www.w3.org/1999/xlink" x="0px" y="0px" width="256px" height="512px"><path d="M163.6710052,3.6532512H44.1850166c-21.9780674,0-39.8579369,17.8798656-39.8579369,39.8579292v13.7816658C0.3338808,57.25,0.1672141,58.7708321,0.0005474,59.9332619v20.2568245c0.0199998,0.3215561,0.0062204,3.1642761,4.3265314,2.6345673v21.6326447c-4.4724402,0-4.3265314,2.8421402-4.3265314,3.1366348v11.9844589c0.0094069,1.6774368-0.1354081,3.9824142,4.3265314,3.6779404v21.5975189c-3.0525916-0.2553101-4.2007518,0.8321228-4.3265314,2.6404114v12.8026123c0,1.28125-0.03125,3.828125,4.3265314,3.3560028v308.4891968C4.3270788,494.1201172,22.2069378,512,44.1850166,512H215.841095c21.9721985,0,39.852066-17.8798828,39.852066-39.8579102V43.5112381c0-21.9780655-17.8798676-39.857933-39.852066-39.8579865h-6.4634552C209.5662537,1.9668156,208.9141083,0.1306221,206.76651,0h-40.4550934C165.2041016,0.0751669,163.3978729,0.6812081,163.6710052,3.6532512z M146.6107941,51.6139145h-36.5793839c-6.813942-0.2859383-6.5759125-8.5691299,0-8.699894h36.5793839C153.6423492,43.3547897,152.8952484,51.5470963,146.6107941,51.6139145z M240.5473938,419.4098816H16.1182003V82.7660675h224.4291992V419.4098816z M133.6546021,454.4436951h-10.8543701c-2.3652496,0-4.279686,1.9203186-4.279686,4.2679443v11.0124512c0,2.359375,1.9144363,4.2679443,4.279686,4.2679443h10.8543701c2.3710938,0,4.3031158-1.9085693,4.3031158-4.2679443v-11.0124512C137.9635773,456.369812,136.0256958,454.4436951,133.6546021,454.4436951z M115.960434,485.6688538c-16.4218445-9.4673767-16.4218521-33.2643433,0-42.73172s37.0606079,2.4310913,37.0606079,21.3658752C153.0210419,483.2377625,132.3822784,495.1362305,115.960434,485.6688538z M88.9000473,50.9069748c-2.7999954-1.6142311-2.8000031-5.6717186,0-7.2859497c2.7999954-1.6142311,6.3190002,0.4145126,6.3190002,3.6429749S91.7000427,52.5212059,88.9000473,50.9069748z"/></svg>

<svg xmlns="http://www.w3.org/2000/svg" width="256" height="512"><path d="M163.671 3.653H44.185c-21.978 0-39.858 17.88-39.858 39.858v13.782C.334 57.25.167 58.77.001 59.933V80.19c.02.322.006 3.164 4.326 2.635v21.632c-4.472 0-4.326 2.842-4.326 3.137v11.984c.009 1.678-.136 3.983 4.326 3.678v21.598c-3.053-.255-4.2.832-4.326 2.64v12.803c0 1.281-.032 3.828 4.326 3.356v308.49C4.327 494.12 22.207 512 44.185 512h171.656c21.972 0 39.852-17.88 39.852-39.858V43.512c0-21.979-17.88-39.859-39.852-39.859h-6.463c.188-1.686-.464-3.522-2.611-3.653H166.31c-1.107.075-2.913.681-2.64 3.653zm-17.06 47.96h-36.58c-6.814-.285-6.576-8.568 0-8.699h36.58c7.031.44 6.284 8.633 0 8.7zm93.936 367.797H16.118V82.766h224.43V419.41zm-106.892 35.034H122.8a4.279 4.279 0 0 0-4.28 4.268v11.012a4.271 4.271 0 0 0 4.28 4.268h10.855c2.37 0 4.303-1.909 4.303-4.268v-11.012c.006-2.342-1.932-4.268-4.303-4.268zm-17.695 31.225c-16.421-9.468-16.421-33.264 0-42.732s37.061 2.431 37.061 21.366-20.639 30.833-37.06 21.366zM88.9 50.907c-2.8-1.614-2.8-5.672 0-7.286 2.8-1.614 6.319.415 6.319 3.643S91.7 52.521 88.9 50.907z"/></svg>
